packages/foundations/assets/icons/functional/images/food/knife_and_fork.svg

<svg xmlns="http://www.w3.org/2000/svg" width="32" height="32" fill="none"><path fill="#1A1C1F" fill-rule="evenodd" d="M6.531 2.126c-.209.127-.44.403-.491.585-.022.078-.039 1.678-.037 3.556l.003 3.413.139.513c.263.971.697 1.726 1.371 2.383.61.595 1.457 1.078 2.187 1.247l.27.062v7.554c0 6.498.011 7.592.079 7.819a.988.988 0 0 0 1.798.248l.123-.199.027-7.704.027-7.703.24-.062a5.1 5.1 0 0 0 2.128-1.18c.686-.637 1.149-1.396 1.435-2.351l.139-.467.019-3.467c.013-2.349.001-3.528-.038-3.659-.124-.423-.495-.687-.964-.687-.307 0-.496.081-.699.302-.298.321-.285.155-.314 3.884l-.026 3.467-.147.367c-.47 1.174-1.579 1.949-2.791 1.952-.404.001-1.062-.163-1.426-.356-.418-.221-1.041-.876-1.254-1.318-.321-.664-.327-.742-.328-4.287C8 2.619 7.999 2.611 7.745 2.33c-.267-.296-.892-.4-1.214-.204m4 0c-.209.127-.44.403-.491.585-.022.078-.04 1.582-.04 3.342 0 2.883.009 3.216.089 3.36.415.751 1.469.755 1.809.007.094-.207.1-.41.101-3.408.001-3.392 0-3.401-.254-3.682-.267-.296-.892-.4-1.214-.204m13.342-.016a6.14 6.14 0 0 0-3.687 2.342c-.498.67-.801 1.324-1.049 2.268l-.119.453-.019 5.947c-.013 4.173-.001 6.006.039 6.144.078.267.299.517.56.636.197.089.393.098 2.309.099L24 20l.001 4.6c.001 4.377.006 4.611.101 4.82.055.12.181.281.28.357.173.132.58.261.705.223.033-.01.126-.032.208-.05s.243-.119.359-.224c.403-.364.373.765.373-13.68 0-9.213-.017-13.026-.059-13.221a1.12 1.12 0 0 0-.533-.721c-.191-.099-1.052-.096-1.562.006M24 11.067v6.96h-2.99l.015-5.4.015-5.4.125-.374c.462-1.376 1.458-2.344 2.822-2.742.007-.003.013 3.128.013 6.956"/></svg>

<svg width="32" height="32" viewBox="0 0 32 32" fill="none" xmlns="http://www.w3.org/2000/svg"><path d="M6.531 2.126 C 6.322 2.253,6.091 2.529,6.040 2.711 C 6.018 2.789,6.001 4.389,6.003 6.267 L 6.006 9.680 6.145 10.193 C 6.408 11.164,6.842 11.919,7.516 12.576 C 8.126 13.171,8.973 13.654,9.703 13.823 L 9.973 13.885 9.973 21.439 C 9.973 27.937,9.984 29.031,10.052 29.258 C 10.300 30.096,11.390 30.245,11.850 29.506 L 11.973 29.307 12.000 21.603 L 12.027 13.900 12.267 13.838 C 13.023 13.642,13.797 13.213,14.395 12.658 C 15.081 12.021,15.544 11.262,15.830 10.307 L 15.969 9.840 15.988 6.373 C 16.001 4.024,15.989 2.845,15.950 2.714 C 15.826 2.291,15.455 2.027,14.986 2.027 C 14.679 2.027,14.490 2.108,14.287 2.329 C 13.989 2.650,14.002 2.484,13.973 6.213 L 13.947 9.680 13.800 10.047 C 13.330 11.221,12.221 11.996,11.009 11.999 C 10.605 12.000,9.947 11.836,9.583 11.643 C 9.165 11.422,8.542 10.767,8.329 10.325 C 8.008 9.661,8.002 9.583,8.001 6.038 C 8.000 2.619,7.999 2.611,7.745 2.330 C 7.478 2.034,6.853 1.930,6.531 2.126 M10.531 2.126 C 10.322 2.253,10.091 2.529,10.040 2.711 C 10.018 2.789,10.000 4.293,10.000 6.053 C 10.000 8.936,10.009 9.269,10.089 9.413 C 10.504 10.164,11.558 10.168,11.898 9.420 C 11.992 9.213,11.998 9.010,11.999 6.012 C 12.000 2.620,11.999 2.611,11.745 2.330 C 11.478 2.034,10.853 1.930,10.531 2.126 M23.873 2.110 C 22.419 2.399,21.080 3.249,20.186 4.452 C 19.688 5.122,19.385 5.776,19.137 6.720 L 19.018 7.173 18.999 13.120 C 18.986 17.293,18.998 19.126,19.038 19.264 C 19.116 19.531,19.337 19.781,19.598 19.900 C 19.795 19.989,19.991 19.998,21.907 19.999 L 24.000 20.000 24.001 24.600 C 24.002 28.977,24.007 29.211,24.102 29.420 C 24.157 29.540,24.283 29.701,24.382 29.777 C 24.555 29.909,24.962 30.038,25.087 30.000 C 25.120 29.990,25.213 29.968,25.295 29.950 C 25.376 29.932,25.538 29.831,25.654 29.726 C 26.057 29.362,26.027 30.491,26.027 16.046 C 26.027 6.833,26.010 3.020,25.968 2.825 C 25.905 2.529,25.686 2.234,25.435 2.104 C 25.244 2.005,24.383 2.008,23.873 2.110 M24.000 11.067 L 24.000 18.027 22.505 18.027 L 21.010 18.027 21.025 12.627 L 21.040 7.227 21.165 6.853 C 21.627 5.477,22.623 4.509,23.987 4.111 C 23.994 4.108,24.000 7.239,24.000 11.067 " fill="#1A1C1F" stroke="none" fill-rule="evenodd"></path></svg>
